app/images/logo/bedlam-logo.svg

<svg width="250" height="27" viewBox="0 0 250 27" fill="none" xmlns="http://www.w3.org/2000/svg">
<path d="M19.492 12.896C20.932 13.352 22.06 14.12 22.876 15.2C23.692 16.256 24.1 17.564 24.1 19.124C24.1 21.332 23.236 23.036 21.508 24.236C19.804 25.412 17.308 26 14.02 26H0.988V0.799998H13.3C16.372 0.799998 18.724 1.388 20.356 2.564C22.012 3.74 22.84 5.336 22.84 7.352C22.84 8.576 22.54 9.668 21.94 10.628C21.364 11.588 20.548 12.344 19.492 12.896ZM6.784 5.192V11.132H12.58C14.02 11.132 15.112 10.88 15.856 10.376C16.6 9.872 16.972 9.128 16.972 8.144C16.972 7.16 16.6 6.428 15.856 5.948C15.112 5.444 14.02 5.192 12.58 5.192H6.784ZM13.588 21.608C15.124 21.608 16.276 21.356 17.044 20.852C17.836 20.348 18.232 19.568 18.232 18.512C18.232 16.424 16.684 15.38 13.588 15.38H6.784V21.608H13.588ZM48.0273 21.32V26H28.5153V0.799998H47.5593V5.48H34.3113V10.952H46.0113V15.488H34.3113V21.32H48.0273ZM52.6677 0.799998H64.1157C66.8517 0.799998 69.2637 1.328 71.3517 2.384C73.4637 3.416 75.0957 4.88 76.2477 6.776C77.4237 8.672 78.0117 10.88 78.0117 13.4C78.0117 15.92 77.4237 18.128 76.2477 20.024C75.0957 21.92 73.4637 23.396 71.3517 24.452C69.2637 25.484 66.8517 26 64.1157 26H52.6677V0.799998ZM63.8277 21.212C66.3477 21.212 68.3517 20.516 69.8397 19.124C71.3517 17.708 72.1077 15.8 72.1077 13.4C72.1077 11 71.3517 9.104 69.8397 7.712C68.3517 6.296 66.3477 5.588 63.8277 5.588H58.4997V21.212H63.8277ZM82.4099 0.799998H88.2419V21.248H100.878V26H82.4099V0.799998ZM120.943 20.6H109.243L107.011 26H101.035L112.267 0.799998H118.027L129.295 26H123.175L120.943 20.6ZM119.107 16.172L115.111 6.524L111.115 16.172H119.107ZM154.842 26L154.806 10.88L147.39 23.336H144.762L137.382 11.204V26H131.91V0.799998H136.734L146.166 16.46L155.454 0.799998H160.242L160.314 26H154.842ZM176.488 0.799998H182.32V26H176.488V0.799998ZM211.413 0.799998V26H206.625L194.061 10.7V26H188.301V0.799998H193.125L205.652 16.1V0.799998H211.413ZM229.435 26.432C226.867 26.432 224.539 25.88 222.451 24.776C220.387 23.648 218.755 22.1 217.555 20.132C216.379 18.14 215.791 15.896 215.791 13.4C215.791 10.904 216.379 8.672 217.555 6.704C218.755 4.712 220.387 3.164 222.451 2.06C224.539 0.931999 226.879 0.368 229.471 0.368C231.655 0.368 233.623 0.752 235.375 1.52C237.151 2.288 238.639 3.392 239.839 4.832L236.095 8.288C234.391 6.32 232.279 5.336 229.759 5.336C228.199 5.336 226.807 5.684 225.583 6.38C224.359 7.052 223.399 8 222.703 9.224C222.031 10.448 221.695 11.84 221.695 13.4C221.695 14.96 222.031 16.352 222.703 17.576C223.399 18.8 224.359 19.76 225.583 20.456C226.807 21.128 228.199 21.464 229.759 21.464C232.279 21.464 234.391 20.468 236.095 18.476L239.839 21.932C238.639 23.396 237.151 24.512 235.375 25.28C233.599 26.048 231.619 26.432 229.435 26.432ZM245.927 26.288C244.943 26.288 244.115 25.952 243.443 25.28C242.771 24.608 242.435 23.768 242.435 22.76C242.435 21.728 242.771 20.9 243.443 20.276C244.115 19.628 244.943 19.304 245.927 19.304C246.911 19.304 247.739 19.628 248.411 20.276C249.083 20.9 249.419 21.728 249.419 22.76C249.419 23.768 249.083 24.608 248.411 25.28C247.739 25.952 246.911 26.288 245.927 26.288Z" fill="white"/>
</svg>

<svg width="250" height="27" fill="none" xmlns="http://www.w3.org/2000/svg"><path d="M19.492 12.896c1.44.456 2.568 1.224 3.384 2.304.816 1.056 1.224 2.364 1.224 3.924 0 2.208-.864 3.912-2.592 5.112C19.804 25.412 17.308 26 14.02 26H.988V.8H13.3c3.072 0 5.424.588 7.056 1.764 1.656 1.176 2.484 2.772 2.484 4.788 0 1.224-.3 2.316-.9 3.276-.576.96-1.392 1.716-2.448 2.268zM6.784 5.192v5.94h5.796c1.44 0 2.532-.252 3.276-.756.744-.504 1.116-1.248 1.116-2.232 0-.984-.372-1.716-1.116-2.196-.744-.504-1.836-.756-3.276-.756H6.784zm6.804 16.416c1.536 0 2.688-.252 3.456-.756.792-.504 1.188-1.284 1.188-2.34 0-2.088-1.548-3.132-4.644-3.132H6.784v6.228h6.804zm34.44-.288V26H28.514V.8H47.56v4.68H34.311v5.472h11.7v4.536h-11.7v5.832h13.716zM52.667.8h11.448c2.736 0 5.148.528 7.236 1.584 2.112 1.032 3.744 2.496 4.896 4.392 1.176 1.896 1.764 4.104 1.764 6.624 0 2.52-.588 4.728-1.764 6.624-1.152 1.896-2.784 3.372-4.896 4.428-2.088 1.032-4.5 1.548-7.236 1.548H52.668V.8zm11.16 20.412c2.52 0 4.524-.696 6.012-2.088 1.512-1.416 2.268-3.324 2.268-5.724 0-2.4-.756-4.296-2.268-5.688-1.488-1.416-3.492-2.124-6.012-2.124H58.5v15.624h5.328zM82.41.8h5.832v20.448h12.636V26H82.41V.8zm38.533 19.8h-11.7l-2.232 5.4h-5.976L112.267.8h5.76L129.295 26h-6.12l-2.232-5.4zm-1.836-4.428l-3.996-9.648-3.996 9.648h7.992zM154.842 26l-.036-15.12-7.416 12.456h-2.628l-7.38-12.132V26h-5.472V.8h4.824l9.432 15.66L155.454.8h4.788l.072 25.2h-5.472zM176.488.8h5.832V26h-5.832V.8zm34.925 0V26h-4.788l-12.564-15.3V26h-5.76V.8h4.824l12.527 15.3V.8h5.761zm18.022 25.632c-2.568 0-4.896-.552-6.984-1.656-2.064-1.128-3.696-2.676-4.896-4.644-1.176-1.992-1.764-4.236-1.764-6.732 0-2.496.588-4.728 1.764-6.696a12.485 12.485 0 014.896-4.644c2.088-1.128 4.428-1.692 7.02-1.692 2.184 0 4.152.384 5.904 1.152 1.776.768 3.264 1.872 4.464 3.312l-3.744 3.456c-1.704-1.968-3.816-2.952-6.336-2.952-1.56 0-2.952.348-4.176 1.044a7.293 7.293 0 00-2.88 2.844c-.672 1.224-1.008 2.616-1.008 4.176s.336 2.952 1.008 4.176a7.545 7.545 0 002.88 2.88c1.224.672 2.616 1.008 4.176 1.008 2.52 0 4.632-.996 6.336-2.988l3.744 3.456a11.67 11.67 0 01-4.464 3.348c-1.776.768-3.756 1.152-5.94 1.152zm16.492-.144c-.984 0-1.812-.336-2.484-1.008-.672-.672-1.008-1.512-1.008-2.52 0-1.032.336-1.86 1.008-2.484.672-.648 1.5-.972 2.484-.972s1.812.324 2.484.972c.672.624 1.008 1.452 1.008 2.484 0 1.008-.336 1.848-1.008 2.52-.672.672-1.5 1.008-2.484 1.008z" fill="#fff"/></svg>
